!!!!SEGMENT: pl-kk--kk-i-6--064-008_lilius-franciszek--missa-pro-defunctis-agnus-dei.krn
!!!cenid: 16xx:1067
!!!COM: Lilius, Franciszek
!!!COM-rismID: pe30020509
!!!CDT: ~1600-1657
!!!CNT: Polish
!!!OPR: Missa pro defunctis
!!!OTL: Agnus Dei
!!!OMV: 008
!!!PDT:
!!!AGN:
!!!SMS-siglum: PL-Kk
!!!SMS-shelfmark: Kk.I.6
!!!SMS-shelfwork: 064-008 M
!!!SMS-variant:
!!!SMS-altvar:
!!!NIFC-rismSourceID: 1001135513
!!!NIFC-rismChildID: 1001136594
!!!NIFC-islandoraID: pl-kk:1634
!!!URL-pdf-islandora: https://repozytorium.nifc.pl/islandora/object/pl-kk%3A1634/datastream/PDF/view
!!!URL-scan: https://polish.musicsources.pl/pl/lokalizacje/galeria/rekopisy/6133 @EN{Scan on Polish Music Sources Website} @PL{Skany w portalu Dziedzictwo Muzyki Polskiej w otwartym dostępie}
!!!IIIF:
!!!ONB-nifc: UWAGA: C (skan 0088-0092), T (skan 0200-0206), B (skan 0313-0319) Części Mszy: 1. Requiem aeternam, 2. Kyrie, 3. Requiem aeternam, 4. Absolve Domine, 5. Dies irae, 6. Domine Jesu Christe, 7. Sanctus, 8. Agnus Dei, 9. Lux aeterna
!!!AIN: 1 bass 1 soprn 1 tenor
!!!key:
**kern	**text	**kern	**text	**kern	**text
*part3	*part3	*part2	*part2	*part1	*part1
*staff3	*staff3	*staff2	*staff2	*staff1	*staff1
*I"Basso	*	*I"Tenore	*	*I"Canto	*
*I'B	*	*I'T	*	*I'S	*
*Ibass	*	*Itenor	*	*Isoprn	*
*ICvox	*	*ICvox	*	*ICvox	*
*clefF4	*	*clefC4	*	*clefC4	*
*k[]	*	*k[]	*	*k[]	*
*C:	*	*C:	*	*C:	*
*M2/1	*	*M2/1	*	*M2/1	*
*met(C)	*	*met(C)	*	*met(C)	*
=1-	=1-	=1-	=1-	=1-	=1-
1.C	A-	1.c	A-	1G	A-
.	.	.	.	1G	-gnus
2C/	-gnus	2c\	-gnus	.	.
=2-	=2-	=2-	=2-	=2-	=2-
*lig	*	*	*	*lig	*
1E	De-	2.B\	De-	1G	De-
.	.	4c\	.	.	.
1D	.	4d\	.	1A	.
.	.	4A\	.	.	.
.	.	1d\	.	.	.
*Xlig	*	*	*	*Xlig	*
=3-	=3-	=3-	=3-	=3-	=3-
1AA	-i	.	.	1A	-i
!	!	!LO:TX:b:t=P:problem=# below	!	!	!
.	.	2c#X\	.	.	.
!LO:TX:t=P:global:problem=oddech jako rozdzielacz słów	!	!	!	!	!
2D/,<	.	1d	-i	1A	qui
2D/	qui	.	.	.	.
=4-	=4-	=4-	=4-	=4-	=4-
2.D/	tol-	2r	.	1A	tol-
.	.	2d\	qui	.	.
4E\	.	.	.	.	.
1F	.	2.A\	tol-	1A	-lis
.	.	4B\	-lis	.	.
=5-	=5-	=5-	=5-	=5-	=5-
2C/	-lis	2cny\	pec-	1G	pec-
2C/	pec-	2c\	-ca-	.	.
*custos:F	*	*	*	*	*
!LO:LB:g=original	!	!	!	!	!
2.F\	-ca-	2c\	-ta	1A	-ca-
.	.	1c	mun-	.	.
4E\	.	.	.	.	.
=6-	=6-	=6-	=6-	=6-	=6-
2D/	.	.	.	1F	-ta
2D/	-ta	2B\	.	.	.
1C	mun-	1c	.	1G	mun-
=7-	=7-	=7-	=7-	=7-	=7-
1FF	-di	1c	-di	1A	-di
1.C	do-	1.e	do-	1G	do-
=8-	=8-	=8-	=8-	=8-	=8-
.	.	.	.	1G	-na
2C/	-na	2e\	-na	.	.
4FF/	e-	1c	e-	1A	e-
4GG/	.	.	.	.	.
4AA/	.	.	.	.	.
4BB/	.	.	.	.	.
=9-	=9-	=9-	=9-	=9-	=9-
1C	.	1c	-is	1G	-is
*	*	*custos:d	*	*	*
!	!	!LO:LB:g=original	!	!	!
*	*	*	*	*lig	*
1FF	-is	2d\	re-	1A	re-
.	.	2c\	.	.	.
=10-	=10-	=10-	=10-	=10-	=10-
1.GG	re-	2B\	.	1G	.
.	.	1c	.	.	.
*	*	*	*	*Xlig	*
.	.	.	.	1G	-qui-
2GG/	-qui-	2B\	-qui-	.	.
=11-	=11-	=11-	=11-	=11-	=11-
0C;	-em	0c;<	-em	0G;<	-em
!LO:LB:g=original	!	!	!	!LO:LB:g=original	!
=12||	=12||	=12||	=12||	=12||	=12||
*clefF4	*	*clefC4	*	*clefC4	*
!	!	!LO:N:vis=0	!	!	!
1r	.	0r	.	1F	A-
.	.	.	.	.	.
1C	A-	.	.	1G	-gnus
.	.	.	.	.	.
=13-	=13-	=13-	=13-	=13-	=13-
2C/	-gnus	2r	.	1A	De-
*2\right	*	*	*	*	*
2.D\	De-	2.F/	A-	.	.
.	.	.	.	1A	-i
4E\	.	4G/	.	.	.
2F\	.	2A/	.	.	.
.	.	.	.	.	.
.	.	.	.	.	.
=14-	=14-	=14-	=14-	=14-	=14-
1D	-i	1F	.	1A	qui
.	.	.	.	.	.
.	.	.	.	.	.
.	.	.	.	.	.
1C#X	qui	2E/	-gnus	1A	tol-
.	.	4A/	De-	.	.
.	.	4G/	.	.	.
=15-	=15-	=15-	=15-	=15-	=15-
2.D/	tol-	4F/	.	1A\	-lis
.	.	4E/	.	.	.
.	.	1D	.	.	.
4Cny/	.	.	.	.	.
.	.	.	.	.	.
.	.	.	.	.	.
!LO:TX:b:t=P:problem=# below	!	!	!	!	!
4BB-/	.	.	.	1G	pec-
4AA/	.	.	.	.	.
2BB-X/	.	2D/	-i	.	.
=16-	=16-	=16-	=16-	=16-	=16-
2AA/	-lis	2E/	qui	1A	ca-
2AA/	pec-	2A/	tol-	.	.
2D\	-ca-	4A/	-lis	1F	-ta
.	.	4A/	pec-	.	.
2F\	-ta	1d	-ca-	.	.
=17-	=17-	=17-	=17-	=17-	=17-
1E	mun-	.	.	1G	mun-
!	!	!LO:TX:a:t=P:problem=# above	!	!	!
.	.	2c#\	.	.	.
1D	-di	1d	-ta	1A	-di
.	.	.	.	.	.
=18-	=18-	=18-	=18-	=18-	=18-
1G	do-	2.B-\	mun-	1G	do-
.	.	.	.	.	.
.	.	4cny\	-di	.	.
*	*	*custos:d	*	*	*
!	!	!LO:LB:g=original	!	!	!
1D	-na	1d	do-	1A	-na
.	.	.	.	.	.
.	.	.	.	.	.
.	.	.	.	.	.
=19-	=19-	=19-	=19-	=19-	=19-
4A\	e-	2c\	-na	1A	e-
4G\	.	.	.	.	.
4F\	.	2.f\	e-	.	.
4E\	.	.	.	.	.
2D/	.	.	.	1A	-is
.	.	4e\	.	.	.
2D/	-is	2d\	.	.	.
*custos:AA	*	*	*	*	*
!LO:LB:g=original	!	!	!	!	!
=20-	=20-	=20-	=20-	=20-	=20-
2.AA/	re-	1c	-is	1A	re-
4BBny/	.	.	.	.	.
.	.	.	.	.	.
1C	.	1.c	re-	1G	-qui-
.	.	.	.	.	.
.	.	.	.	.	.
=21-	=21-	=21-	=21-	=21-	=21-
!	!	!	!	!LO:N:vis=1	!
1.GG	.	.	.	[0G;l	-em
.	.	4Bny\	.	.	.
.	.	4A\	.	.	.
.	.	2B\	.	.	.
.	.	.	.	.	.
2GG/	-qui-	2B\	-qui-	.	.
=22-	=22-	=22-	=22-	=22-	=22-
0C;	-em	0c;<	-em	0G]	.
.	.	.	.	.	.
!	!	!	!	!LO:LB:g=original	!
=23||	=23||	=23||	=23||	=23||	=23||
*clefF4	*	*clefC4	*	*clefC4	*
*	*	*M2/1	*	*	*
*	*	*met(C)	*	*	*
1.C	A-	1.c	A-	1G	A-
.	.	.	.	1G	-gnus
2C/	-gnus	2c\	-gnus	.	.
=24-	=24-	=24-	=24-	=24-	=24-
*lig	*	*	*	*lig	*
1E	De-	2.B\	De-	1G	De-
.	.	4c\	.	.	.
1D	.	4d\	.	1A	.
.	.	4A\	.	.	.
.	.	1d	.	.	.
*Xlig	*	*	*	*Xlig	*
=25-	=25-	=25-	=25-	=25-	=25-
1AA	-i	.	.	1A	-i
!	!	!LO:TX:a:t=P:problem=# above	!	!	!
.	.	2c#X\	.	.	.
2D/,	.	1.d	-i	1A	qui
2D/	qui	.	.	.	.
=26-	=26-	=26-	=26-	=26-	=26-
2.D/	tol-	.	.	1A	tol-
.	.	2d\	qui	.	.
4E\	.	.	.	.	.
1F	.	2.A\	tol-	1A	-lis
.	.	4B\	-lis	.	.
*	*	*custos:c	*	*	*
!	!	!LO:LB:g=original	!	!	!
=27-	=27-	=27-	=27-	=27-	=27-
2C/	-lis	2cny\	pec-	1G	pec-
2C/	pec-	2c\	-ca-	.	.
*2\left	*	*	*	*	*
2.F\	-ca-	2c\	-ta	1A	-ca-
.	.	1c	mun-	.	.
4E\	.	.	.	.	.
=28-	=28-	=28-	=28-	=28-	=28-
2D\	.	.	.	1F	-ta
2D\	-ta	2B\	.	.	.
*custos:C	*	*	*	*	*
!LO:LB:g=original	!	!	!	!	!
1C	mun-	1c	.	1G	mun-
=29-	=29-	=29-	=29-	=29-	=29-
1FF	-di	1c	-di	1A	-di
2C/	do-	1r	.	1G	do-
2C/	-na	.	.	.	.
=30-	=30-	=30-	=30-	=30-	=30-
2.F\	e-	2.c\	do-	1A	-na
4E\	.	4c\	-na	.	.
*	*	*lig	*	*	*
1D	.	1f	e-	1A	e-
=31-	=31-	=31-	=31-	=31-	=31-
1AA	.	1e	.	1A	-is
*	*	*Xlig	*	*	*
1D	-is	2d\	.	1A	re-
.	.	2A/	-is	.	.
=32-	=32-	=32-	=32-	=32-	=32-
2.G\	re-	4B\	re-	1G	-qui-
.	.	4c\	.	.	.
.	.	1d	.	.	.
4F\	.	.	.	.	.
2E\	.	.	.	1G	-em
!	!	!LO:TX:a:t=P:problem=# above	!	!	!
2E\	-qui-	2c#X\	-qui-	.	.
*	*	*	*	*custos:F	*
!	!	!	!	!LO:PB:g=original	!
=33-	=33-	=33-	=33-	=33-	=33-
1D	-em	2d\	-em	1F	ſem-
.	.	1F	ſem-	.	.
1C	ſem-	.	.	1G	-pi-
.	.	2E/	-pi-	.	.
=34-	=34-	=34-	=34-	=34-	=34-
*	*	*	*	*lig	*
1FF	-pi-	1.F	-ter-	1A	-ter-
0GG	-ter-	.	.	1G	.
.	.	2E/	.	.	.
*	*	*	*	*Xlig	*
=35-	=35-	=35-	=35-	=35-	=35-
.	.	1D	.	[>0G	-nam
1C	-nam	1E	-nam	.	.
=36-	=36-	=36-	=36-	=36-	=36-
2r	.	2.C/	do-	0G_>	.
1C	do-	.	.	.	.
.	.	4C/	-na	.	.
.	.	1cny	e-	.	.
2C/	-na	.	.	.	.
=37-	=37-	=37-	=37-	=37-	=37-
2.G\	e-	1B	-is	0G_>	.
4F\	.	.	.	.	.
*	*	*custos:e	*	*	*
!	!	!LO:LB:g=original	!	!	!
2E\	.	2e\	re-	.	.
2BB/	-is	2d\	.	.	.
=38-	=38-	=38-	=38-	=38-	=38-
2.C/	re-	4c\	.	0G_	.
.	.	4d\	.	.	.
.	.	4e\	qui-	.	.
4C/	-qui-	4c\	.	.	.
1GG	-em	1d	-em	.	.
*custos:C	*	*	*	*	*
!LO:PB:g=original	!	!	!	!	!
=39-	=39-	=39-	=39-	=39-	=39-
2.C/	ſem-	2.e\	ſem-	0G_>	.
4D/	.	4d\	-pi-	.	.
2E\	.	2c\	-ter-	.	.
2BB/	-pi-	2G/	.	.	.
=40-	=40-	=40-	=40-	=40-	=40-
2C/	-ter-	2c\	.	0G_>	.
2G\	.	2d\	.	.	.
2C/	.	2e\	.	.	.
2BB/	.	1d	.	.	.
=41-	=41-	=41-	=41-	=41-	=41-
1C	.	.	.	1G]	.
.	.	1c	.	.	.
!LO:N:vis=0	!	!	!	!LO:N:vis=0	!
[1GG;l	-nam	.	.	[1G;l	.
.	.	4B\	.	.	.
.	.	4A\	.	.	.
=42-	=42-	=42-	=42-	=42-	=42-
0GG]	.	0B;<	-nam	0G]	.
==	==	==	==	==	==
*-	*-	*-	*-	*-	*-
!!!system-decoration: [(s1,s2,s3)]
!!!RDF**kern: > = above
!!!RDF**kern: < = below
!!!RDF**kern: l = terminal long
!!!ENC: Berenika Jozajtis
!!!END: 2021-10-27
!!!ENC: Marta Lawrence
!!!END: 2021-12-31
!!!YEC: Copyright 2022 Narodowy Instytut Fryderyka Chopina (https://polishscores.org)
!!!YEM: License CC-BY-4.0 (https://creativecommons.org/licenses/by/4.0)
